icons-rebrand/svg/webex-teams-new-light.svg

<svg width="32" height="32" viewBox="0 0 32 32" fill="none" xmlns="http://www.w3.org/2000/svg">
<path fill-rule="evenodd" clip-rule="evenodd" d="M16 7.5C14.067 7.5 12.5 9.067 12.5 11C12.5 12.933 14.067 14.5 16 14.5C17.933 14.5 19.5 12.933 19.5 11C19.5 9.067 17.933 7.5 16 7.5ZM18.3964 14.8095C19.6603 14.0128 20.5 12.6045 20.5 11C20.5 8.51472 18.4853 6.5 16 6.5C13.5147 6.5 11.5 8.51472 11.5 11C11.5 12.6051 12.3404 14.0139 13.6051 14.8105C12.7252 15.0438 11.9009 15.402 11.1602 15.863C10.6517 15.394 10.0248 15.0265 9.3227 14.7919C9.86188 14.2983 10.2 13.5886 10.2 12.8C10.2 11.3088 8.99117 10.1 7.5 10.1C6.00883 10.1 4.8 11.3088 4.8 12.8C4.8 13.5895 5.13889 14.2999 5.67915 14.7936C3.84405 15.408 2.5 16.9284 2.5 18.8C2.5 19.3218 2.81952 19.7073 3.19301 19.9681C3.56601 20.2285 4.06119 20.4177 4.59627 20.5541C5.47321 20.7777 6.55043 20.8824 7.61048 20.8746C7.53784 21.2731 7.5 21.6823 7.5 22.1C7.5 22.9731 8.07793 23.6294 8.82881 24.0941C9.5848 24.5619 10.6117 24.9015 11.7484 25.1321C14.028 25.5948 16.8943 25.6479 19.3045 25.2963C19.5777 25.2564 19.7669 25.0026 19.7271 24.7294C19.6872 24.4561 19.4334 24.2669 19.1601 24.3068C16.8547 24.6431 14.105 24.59 11.9473 24.1521C10.8653 23.9325 9.96831 23.6232 9.35504 23.2437C8.73667 22.861 8.5 22.4714 8.5 22.1C8.5 18.5304 11.8186 15.5 16 15.5C18.0316 15.5 19.8746 16.2219 21.2242 17.3795C21.4338 17.5593 21.7495 17.5351 21.9293 17.3255C22.109 17.1159 22.0849 16.8003 21.8752 16.6205C21.8109 16.5653 21.7456 16.511 21.6794 16.4576C22.3936 15.8719 23.384 15.5 24.5 15.5C26.637 15.5 28.2614 16.8419 28.4752 18.4293C28.5121 18.703 28.7638 18.895 29.0375 18.8581C29.3112 18.8213 29.5031 18.5695 29.4663 18.2959C29.2417 16.6279 27.9461 15.3072 26.2384 14.766C26.8264 14.2707 27.2 13.529 27.2 12.7C27.2 11.2088 25.9912 10 24.5 10C23.0088 10 21.8 11.2088 21.8 12.7C21.8 13.5284 22.1731 14.2696 22.7603 14.7649C22.025 14.9977 21.3691 15.3751 20.8408 15.8621C20.1013 15.4011 19.2777 15.0427 18.3964 14.8095ZM7.87392 19.87C8.33359 18.5372 9.19345 17.3646 10.3209 16.4579C9.60687 15.8722 8.61655 15.5 7.5 15.5C5.19459 15.5 3.5 17.0512 3.5 18.8C3.5 18.8659 3.53284 18.9857 3.76548 19.1482C3.99861 19.3109 4.36332 19.4627 4.8433 19.5851C5.69182 19.8014 6.79282 19.8991 7.87392 19.87ZM24.5 11C23.5611 11 22.8 11.7611 22.8 12.7C22.8 13.6389 23.5611 14.4 24.5 14.4C25.4389 14.4 26.2 13.6389 26.2 12.7C26.2 11.7611 25.4389 11 24.5 11ZM7.5 11.1C6.56112 11.1 5.8 11.8611 5.8 12.8C5.8 13.7389 6.56112 14.5 7.5 14.5C8.43888 14.5 9.2 13.7389 9.2 12.8C9.2 11.8611 8.43888 11.1 7.5 11.1Z" fill="black"/>
<path d="M26.5 19C26.5 18.7239 26.2761 18.5 26 18.5C25.7239 18.5 25.5 18.7239 25.5 19V22.5H22C21.7239 22.5 21.5 22.7239 21.5 23C21.5 23.2761 21.7239 23.5 22 23.5H25.5V27C25.5 27.2761 25.7239 27.5 26 27.5C26.2761 27.5 26.5 27.2761 26.5 27V23.5H30C30.2761 23.5 30.5 23.2761 30.5 23C30.5 22.7239 30.2761 22.5 30 22.5H26.5V19Z" fill="black"/>
</svg>

<?xml version="1.0" encoding="utf-8"?>
<!-- Generator: Adobe Illustrator 25.2.0, SVG Export Plug-In . SVG Version: 6.00 Build 0)  -->
<svg version="1.1" id="Layer_1" xmlns="http://www.w3.org/2000/svg" xmlns:xlink="http://www.w3.org/1999/xlink" x="0px" y="0px"
	 viewBox="0 0 32 32" style="enable-background:new 0 0 32 32;" xml:space="preserve">
<style type="text/css">
	.st0{fill:#0F0F0F;}
</style>
<g>
	<path class="st0" d="M26.238,14.766c0.588-0.495,0.962-1.237,0.962-2.066c0-1.491-1.209-2.7-2.7-2.7s-2.7,1.209-2.7,2.7
		c0,0.828,0.373,1.57,0.96,2.065c-0.735,0.233-1.391,0.61-1.919,1.097c-0.74-0.461-1.563-0.819-2.444-1.053
		C19.66,14.013,20.5,12.604,20.5,11c0-2.485-2.015-4.5-4.5-4.5s-4.5,2.015-4.5,4.5c0,1.605,0.84,3.014,2.105,3.81
		c-0.88,0.233-1.704,0.591-2.445,1.052c-0.509-0.469-1.135-0.836-1.838-1.071C9.862,14.298,10.2,13.589,10.2,12.8
		c0-1.491-1.209-2.7-2.7-2.7s-2.7,1.209-2.7,2.7c0,0.789,0.339,1.5,0.879,1.994C3.844,15.408,2.5,16.928,2.5,18.8
		c0,0.522,0.32,0.907,0.693,1.168c0.373,0.26,0.868,0.45,1.403,0.586c0.877,0.224,1.954,0.328,3.014,0.32
		C7.538,21.273,7.5,21.682,7.5,22.1c0,0.873,0.578,1.529,1.329,1.994c0.756,0.468,1.783,0.807,2.92,1.038
		c2.28,0.463,5.146,0.516,7.556,0.164c0.273-0.04,0.462-0.294,0.423-0.567c-0.04-0.273-0.294-0.463-0.567-0.423
		c-2.305,0.336-5.055,0.283-7.213-0.155c-1.082-0.22-1.979-0.529-2.592-0.908C8.737,22.861,8.5,22.471,8.5,22.1
		c0-3.57,3.319-6.6,7.5-6.6c2.032,0,3.875,0.722,5.224,1.88c0.21,0.18,0.525,0.156,0.705-0.054c0.18-0.21,0.156-0.525-0.054-0.705
		c-0.064-0.055-0.13-0.109-0.196-0.163c0.714-0.586,1.705-0.958,2.821-0.958c2.137,0,3.761,1.342,3.975,2.929
		c0.037,0.274,0.289,0.466,0.562,0.429c0.274-0.037,0.466-0.289,0.429-0.562C29.242,16.628,27.946,15.307,26.238,14.766z M7.5,11.1
		c0.939,0,1.7,0.761,1.7,1.7s-0.761,1.7-1.7,1.7s-1.7-0.761-1.7-1.7S6.561,11.1,7.5,11.1z M7.874,19.87
		c-1.081,0.029-2.182-0.069-3.031-0.285c-0.48-0.122-0.845-0.274-1.078-0.437C3.533,18.986,3.5,18.866,3.5,18.8
		c0-1.749,1.695-3.3,4-3.3c1.117,0,2.107,0.372,2.821,0.958C9.193,17.365,8.334,18.537,7.874,19.87z M12.5,11
		c0-1.933,1.567-3.5,3.5-3.5s3.5,1.567,3.5,3.5s-1.567,3.5-3.5,3.5S12.5,12.933,12.5,11z M24.5,14.4c-0.939,0-1.7-0.761-1.7-1.7
		s0.761-1.7,1.7-1.7s1.7,0.761,1.7,1.7S25.439,14.4,24.5,14.4z"/>
	<path class="st0" d="M30,22.5h-3.5V19c0-0.276-0.224-0.5-0.5-0.5s-0.5,0.224-0.5,0.5v3.5H22c-0.276,0-0.5,0.224-0.5,0.5
		s0.224,0.5,0.5,0.5h3.5V27c0,0.276,0.224,0.5,0.5,0.5s0.5-0.224,0.5-0.5v-3.5H30c0.276,0,0.5-0.224,0.5-0.5S30.276,22.5,30,22.5z"
		/>
</g>
</svg>
